X: 1
T: Nigun Bialik
M:2/4
L:1/8
S:Pasternak / Great Songs of Israel
Z:Seymour.Shlien:crc.doc.ca
K:Em
|: "Em" G>F EE | EEEE | "Am" c c2 B/2A/2 | "Em" B2 B2 | "B7" A>G FA | FA FA | "B7" B B2 A | "Em" GF E z :|
| "Em" e4 | e4 | Begf | B4 | Begf | B4 | Begf | edcB | "D7" dd d/2/c/2/B/2A/2 |"G" B2 B2 |
|:"D7" d z d>c | "G" BABc |"D7" d d2 c|"G" BA G2 :|

%%sep 1 1 500

